ibt/assets/img/icons/facebook-ico.svg

<svg width="21" height="21" viewBox="0 0 21 21" fill="none" xmlns="http://www.w3.org/2000/svg">
<path d="M17.7696 0H3.06373C1.37437 0 0 1.37437 0 3.06373V17.7696C0 19.459 1.37437 20.8333 3.06373 20.8333H9.19118C9.52962 20.8333 9.80392 20.559 9.80392 20.2206V14.0931C9.80392 13.7547 9.52962 13.4804 9.19118 13.4804H7.35294V11.0294H9.19118C9.52962 11.0294 9.80392 10.7551 9.80392 10.4167V7.96569C9.80392 6.27633 11.1783 4.90196 12.8676 4.90196H15.9314V7.35294H13.4804C12.8047 7.35294 12.2549 7.90274 12.2549 8.57843V10.4167C12.2549 10.7551 12.5292 11.0294 12.8676 11.0294H15.8208L15.4122 13.4804H12.8676C12.5292 13.4804 12.2549 13.7547 12.2549 14.0931V20.2206C12.2549 20.559 12.5292 20.8333 12.8676 20.8333H17.7696C19.459 20.8333 20.8333 19.459 20.8333 17.7696V3.06373C20.8333 1.37437 19.459 0 17.7696 0ZM19.6078 17.7696C19.6078 18.7833 18.7833 19.6078 17.7696 19.6078H13.4804V14.7059H15.9314C16.231 14.7059 16.4867 14.4893 16.5357 14.1939L17.1485 10.5174C17.2107 10.1452 16.9237 9.80392 16.5441 9.80392H13.4804V8.57843H16.5441C16.8826 8.57843 17.1569 8.30413 17.1569 7.96569V4.28922C17.1569 3.95077 16.8826 3.67647 16.5441 3.67647H12.8676C10.5026 3.67647 8.57843 5.60063 8.57843 7.96569V9.80392H6.7402C6.40175 9.80392 6.12745 10.0782 6.12745 10.4167V14.0931C6.12745 14.4316 6.40175 14.7059 6.7402 14.7059H8.57843V19.6078H3.06373C2.05006 19.6078 1.22549 18.7833 1.22549 17.7696V3.06373C1.22549 2.05006 2.05006 1.22549 3.06373 1.22549H17.7696C18.7833 1.22549 19.6078 2.05006 19.6078 3.06373V17.7696Z" fill="#DDDDDD"/>
</svg>

<svg width="21" height="21" fill="none" xmlns="http://www.w3.org/2000/svg"><path d="M17.77 0H3.064A3.067 3.067 0 000 3.064V17.77a3.067 3.067 0 003.064 3.063H9.19a.613.613 0 00.613-.612v-6.128a.613.613 0 00-.613-.613H7.353v-2.45H9.19a.613.613 0 00.613-.613V7.966a3.067 3.067 0 013.064-3.064h3.063v2.45h-2.45c-.676 0-1.226.55-1.226 1.226v1.839c0 .338.274.612.613.612h2.953l-.409 2.451h-2.544a.613.613 0 00-.613.613v6.128c0 .338.274.612.613.612h4.902a3.067 3.067 0 003.063-3.063V3.064A3.067 3.067 0 0017.77 0zm1.838 17.77a1.84 1.84 0 01-1.838 1.838h-4.29v-4.902h2.451c.3 0 .556-.217.605-.512l.612-3.677a.613.613 0 00-.604-.713H13.48V8.578h3.064a.613.613 0 00.613-.612V4.289a.613.613 0 00-.613-.613h-3.676a4.294 4.294 0 00-4.29 4.29v1.838H6.74a.613.613 0 00-.613.613v3.676c0 .339.275.613.613.613h1.838v4.902H3.064a1.84 1.84 0 01-1.839-1.838V3.064a1.84 1.84 0 011.839-1.839H17.77a1.84 1.84 0 011.838 1.839V17.77z" fill="#DDD"/></svg>
